X:1
T:Lasso ben m'accorg'io
T:Domenico Obizzi
T:Sonetto
T:Source : Madrigali et arie a voce sola---Libro I ---Venetia---A.Vincenti---1627. Editor : André Vierendeels (24/02/16).
T:Notes : Original clefs : C1, F4 Editorial accidentals above the staff Figures above the BC are notated in original print
T:Lasso ben m'accorg'io
T:©
T:©
T:©
T:©
T:©
T:©
T:©
T:©
T:©
C:Domenico Obizzi
Z:©
%%score 1 2
L:1/8
Q:1/4=120
M:4/4
K:F
V:1 treble nm="Soprano" snm="S"
V:2 bass nm="BC" snm="BC"
V:1
 z4 z2 B/A/B/c/ | d4 d2 f2- | f2 cd Bc c>B- | c4 c2 BA | d2 A2 B3 A | G2 AB c3 B | B3 A A4 | %7
w: Las- * * *|* so ben|_ m'ac- cor- g'i- * * o|_ che dell' in-|fer- no, son per|Don- na cru- del ti|trat- to ve-|
 G4 z GGF | F3 E E>F E>F | G>A G>A B>c B>c | d2 c2 TB3 A | A4 A4 | d2 cd Bc/d/ c>TB | %13
w: ro, a- do- lo-|ra- to Ti- * * *||tio e'l mio pen-|sie- ro,|so- noi tor- men- * * * ti|
 AB/c/ B>TA G .GAB | cd _e/d/c/B/ A2 cB | A4 G4 | z2 G/^F/G/A/ B/c/d/B/ c/A/B/c/ | %17
w: mie- * * * * i fu- * *|* * * * * * * rie d'A-|ver- no,|a- * * * do- * * * lo- * * *|
 d>_e d>c Bc/d/ c>B | A4 AG G>F | G4 G2 G/A/B/G/ | c2 BA B2 c/d/_e/c/ | d2 D/E/F/D/ E^F G/F/G/A/ | %22
w: ra- * * * * * * * to|Ti- ti- o'e'l mio pen-|sie- ro, so- * * *|* no'i tor- men- ti _ _ _|miei fu- * * * * * * * * *|
 G2 cB A4 | !fermata!G8 || z2 G/^F/G/A/ B4 | BA TA>G F3 E | F2 G/A/B/G/ A4 | A3 G ABcA | %28
w: * rie d'A- ver-|no.|Es- * * * *|ser il pian- to mio co|ci- to'i _ _ _ sce-|mo, e Tan- ta- lo'il de-|
 B2 d2 cB AG | A4 G4 | z2 B/A/B/c/ d2 c2 | B2 d2 cBAG | A4 A2 AB | c2 BA B2 d2- | %34
w: sir van- no'e _ leg- *|gie- ro,|si _ _ _ fi- fo'e'il|cor ch'er- ge la spe- me'al|tie- ro i- sion|de so- spi- ri e'il|
 d _e/d/ c3 d/c/ B c/B/ | A4 G4 | z2 B/A/B/c/ d2 c/B/c/A/ | B d/c/ B/A/G/^F/ G2 AB | %38
w: _ mo- * * ro'e- * * ter- *|* no,|si _ _ _ fi- fo'e'il _ _ _|cor ch'er- * * * * * * ge la|
 c<B c<d _e<d e<c | d4 d2 DE | F2 GA B2 G2 | A/G/A/B/ cd/B/ c/A/B/c/ d/e/c/d/ | %42
w: spe- * * * * * me'al- *|tie- ro, i- sion|de so- spi- ri e'il|mo- * * * * * * * * * * * * * *|
"^b" Bc/d/ e/d/c/B/ AB/c/ ^FG/A/ | GA/B/ cB A4 | !fermata!G8 || z2 DE F2 GG | A2 B4 AG | %47
w: |* * * * to'e- ter-|no.|Fle- ge- ton- t'è'il mio|sen tut- to do-|
 A2 G2 A2 Bc | d_e fB c4 | B4 d_e/f/ cd/e/ | d2 cB c2 Bc | A4 A2 G2 | G3 F G2 A2 | A2 G2 A2 AE | %54
w: lo- re Cer- be- ro|le _ Mie _ vo-|ci, Cer- * * * * *|* be- ro le mie _|vo- ci, e|l'I- dra'e pu- re,|il mar- tir che ra-|
 F2 D2 z2 dA | BAGF E4 | !fermata!D8 || z2 D/C/D/E/ F4 | F3 F A2 B2 | c4 c2 c2 | %60
w: dop- pia, che ra-|dop- pi'à tut- te l'ho-|re.|Pro- * * * *|van quell' al- me'il|fo- co io|
 FG/A/ B/c/d/_e/ f2 F2 | G4 F4 | z G/A/ B4 BA | B4 B2 d2 | c3 B B3 A | A4 G4 | z2 B2 e2 c2 | %67
w: pro- * * * * * * * vo'ar-|do- re,|sen- * * ton mi-|se- rie io|pe- ne'a- cer- b'e|du- re,|lor Ra- da-|
 d4 d2 f2 | B2 d2 cd ed | c4 B4 | z2 d/c/d/e/ f2 _ef | df/_e/ d/c/B/A/ GA/B/ cB | A4 A2 c2 | %73
w: man- to e|me con- dan- * n'A- *|mo- re,|pro- * * * * van quel|l'al- * * * * * * * * * * me'il|fo- co, io|
 BA GF G4 | G4 G2 AB | c2 AA BA Bc | dc dTc/B/ c4 | c4 A2 Bc | F2 FB GA B/A/B/G/ | %79
w: pro- * vo'ar- * do-|re, sen- ton mi-|se- rie, io pe- * ne'a- *|cer- * be _ e du-|re, lor Ra- da-|man- to e me _ con- * * *|
 A2 B/A/G/F/ G/F/G/A/ Bc | c4 B2 d2 | B3 A cd c/B/c/B/ | AD/E/ F/G/A/B/ c2 cB | A8 | G8 |] %85
w: dan- * * * * * * * * * n'A-|mo- re, e|me con- dan- * * * * *|* * * * * * * * n'A- *|mo-|re.|
V:2
 G,8 | B,4 B,4 | A,4 G,4 | F,4 F,4 | ^F,4 G,2 D,2 | _E,2 D,2 C,2 D,2 | _E,2 C,2 D,4 | G,,4 G,,4 | %8
 A,,2 =B,,2 C,4 | C,2 A,,2 G,,4 | G,,2 A,,2 B,,2 C,2 | D,4 D,4 | B,,2 C,2 D,2 E,2 | %13
 F,2 D,2 _E,2 D,2 |"^#" C,2 G,,2 D,2 C,2 |"^#" D,4 G,,4 | G,,4 G,,2 A,,2 | B,,2 C,2 D,2 E,2 | %18
 F,2 E,2 D,4 | C,4 C,4 | C,2 D,2 G,,2 A,,2 | B,,4 C,2 D,2 | _E,2 C,2 D,4 | !fermata!G,,8 || %24
 G,,4 G,,2 A,,2 | B,,2 C,2 D,2 C,2 | D,2 E,2 F,4 | F,2 E,2 F,2 A,2 | G,2 B,,2 C,2 _E,2 | D,4 G,,4 | %30
 G,,4 G,,2 A,,2 | B,,3 C, D,2 E,2 | F,4 F,,4 | F,4 G,2 B,,2 |"^#" C,4 D,2 _E,2 | C,2 D,2 G,,4 | %36
 G,4 B,2 A,2 | G,4 G,2 F,2 | _E,2 D,2 C,2 F,2 | B,,4 B,,4 | B,,2 A,,2 G,,2 C,2 | F,2 E,2 F,2 D,2 | %42
 G,2 C,2 D,4 |"^b""^#" _E,2 C,2 D,4 | !fermata!G,,8 || D,4 D,2 C,2 | F,2 B,,2 C,4 | %47
 F,2 E,2 D,2 C,2 | B,,4 F,4 | B,,4 B,2 A,2 |"^-natural" G,4 E,4 |"^6" F,4 F,2 E,2 | %52
"^(7-natural6)" D,4 C,4 |"^#""^b" B,,4 A,,4 | D,2 D,A,, B,,2 ^F,2 | G,2 G,,2 A,,4 | !fermata!D,8 || %57
 B,,8 | B,,4 A,,2 G,,2 | F,,8 | F,,4 F,,2 G,,2 | A,,2 B,,2 F,,4 | _E,8 | _E,4 B,,4 | %64
 C,2 D,2 _E,2 C,2 | D,4 G,,4 | G,4 _E,2 F,2 | B,,4 B,,4 | D,4 _E,4 | F,4 B,,4 | B,,4 B,,2 C,2 | %71
 D,4 E,4 | F,4 F,2 A,,2 | B,,2 D,2 C,4 | C,4 C,2 B,,2 | A,,2 D,2 G,,2 A,,2 | D,4 F,,4 | F,,4 F,4 | %78
 D,4 _E,4 | F,2 D,2 _E,4 | F,4 B,,4 | G,,4 C,4 | D,4 C,4 | D,8 | G,,8 |] %85

